uploads/exercises/legs.svg

<svg width="30" height="35" viewBox="0 0 30 35" fill="none" xmlns="http://www.w3.org/2000/svg">
<path d="M25.7509 16.701C24.8336 16.701 24.0874 17.4472 24.0874 18.3645C24.0874 19.2818 24.8336 20.028 25.7509 20.028C26.6682 20.028 27.4144 19.2818 27.4144 18.3645C27.4144 17.4472 26.6682 16.701 25.7509 16.701ZM25.7509 18.919C25.445 18.919 25.1964 18.6704 25.1964 18.3645C25.1964 18.0585 25.445 17.81 25.7509 17.81C26.0569 17.81 26.3054 18.0585 26.3054 18.3645C26.3054 18.6704 26.0569 18.919 25.7509 18.919ZM5.95108 15.7544L6.39081 15.3147L5.95108 14.875C5.73455 14.6584 5.73455 14.3074 5.95108 14.0909C6.16762 13.8744 6.51862 13.8744 6.73515 14.0909L7.17488 14.5306L7.6146 14.0909C7.83114 13.8744 8.18214 13.8744 8.39868 14.0909C8.61521 14.3074 8.61521 14.6584 8.39868 14.875L7.95895 15.3147L8.39868 15.7544C8.61521 15.9709 8.61521 16.3219 8.39868 16.5385C8.29041 16.6468 8.14846 16.701 8.00664 16.701C7.86483 16.701 7.72287 16.6468 7.6146 16.5385L7.17488 16.0988L6.73515 16.5385C6.62689 16.6468 6.48493 16.701 6.34312 16.701C6.2013 16.701 6.05935 16.6468 5.95108 16.5385C5.73441 16.3219 5.73441 15.9711 5.95108 15.7544ZM27.9689 12.8194C27.9689 13.1256 27.7207 13.3739 27.4144 13.3739C27.1082 13.3739 26.8599 13.1256 26.8599 12.8194C26.8599 12.5132 27.1082 12.2649 27.4144 12.2649C27.7207 12.2649 27.9689 12.5132 27.9689 12.8194ZM22.8971 21.0796C22.0264 20.1223 20.5681 18.5199 20.5248 18.0011C20.4766 17.4228 21.2342 14.204 21.8103 12.0072C22.4747 11.3569 25.1964 8.22682 25.1964 0.620218C25.1964 0.313713 24.9484 0.0657094 24.6419 0.0657094C24.3354 0.0657094 24.0874 0.313713 24.0874 0.620218C24.0874 6.73575 22.2366 9.74881 21.3837 10.8142L20.6672 9.73938C20.4976 9.48431 20.1538 9.4161 19.8982 9.58565C19.6431 9.75574 19.5744 10.0995 19.7445 10.3546L20.7153 11.8107C20.3774 13.1039 19.3425 17.1634 19.4201 18.0933C19.4894 18.9279 20.47 20.0602 22.0773 21.8266C22.4846 22.2739 22.8792 22.7075 23.2053 23.0932C23.6612 23.6326 23.7121 24.6403 23.332 25.6015C23.0872 26.2199 22.3026 27.6841 20.3044 27.9164C17.9705 28.1877 14.2957 30.5926 11.6123 32.3482C10.5525 33.0419 9.35174 33.8276 9.11566 33.891H8.00664C8.00456 33.891 1.37417 33.8992 1.37417 33.8992C1.32426 33.8623 1.19839 33.7051 1.14017 33.0509L5.6181 31.6221C5.72207 31.5885 5.81412 31.5252 5.88232 31.4402L7.83558 28.9986C7.83613 28.9979 7.83613 28.997 7.83669 28.9963C8.59206 28.1222 12.0297 21.4774 12.7233 20.1307C12.7611 20.0566 12.7823 19.9753 12.7844 19.8924L13.3281 0.570173C13.3367 0.263669 13.0955 0.00859488 12.7896 0C12.4595 0.00762449 12.228 0.232893 12.2197 0.538843L11.6796 19.7349C9.69734 23.5807 7.4032 27.8457 7.01629 28.2545C6.8254 28.4167 5.89771 28.7571 4.98762 29.0744H1.54316C1.333 29.0744 1.14114 29.1929 1.04715 29.3809L0.173383 31.1284C0.0713531 31.2579 0.0238039 31.391 0.0157635 31.5365C0.015209 31.5431 0.0145157 31.5492 0.0142384 31.5558C0.0139612 31.5647 0.0121591 31.5731 0.0121591 31.582C0.0121591 31.6303 0.0102186 31.6979 0.00786191 31.7808C-0.0245768 32.9446 0.0214472 34.0991 0.573183 34.667C0.785144 34.8847 1.05491 35 1.35268 35H17.2016C17.5081 35 17.7561 34.752 17.7561 34.4455C17.7561 34.139 17.5081 33.891 17.2016 33.891H11.2745C11.5555 33.7098 11.8601 33.5117 12.2198 33.2763C14.6642 31.6767 18.3589 29.2589 20.4323 29.0178C22.2317 28.8088 23.7009 27.6841 24.3631 26.0092C24.8975 24.6581 24.7758 23.2324 24.0523 22.3773C23.7181 21.9824 23.3141 21.5378 22.8971 21.0796ZM1.11466 31.8941C1.11535 31.8659 1.11535 31.8407 1.11618 31.8119C1.11702 31.7902 1.11757 31.7701 1.11813 31.7507C1.57657 31.4187 3.43555 30.7809 4.57327 30.3905C4.95324 30.2601 5.27999 30.1465 5.58219 30.0401L5.1214 30.6163L1.11466 31.8941ZM14.6894 19.8526L15.2439 18.1891C15.3192 17.9627 15.5309 17.8101 15.7698 17.8101H17.4333C17.7398 17.8101 17.9878 18.0581 17.9878 18.3646C17.9878 18.6711 17.7398 18.9191 17.4333 18.9191H16.1694L15.7411 20.2036C15.6636 20.436 15.4476 20.5827 15.2152 20.5827C15.1573 20.5827 15.0982 20.5735 15.0397 20.554C14.7496 20.4575 14.5925 20.1433 14.6894 19.8526ZM18.6154 8.65851C16.3291 4.65787 16.8603 0.707968 16.8842 0.541755C16.9274 0.238993 17.2134 0.0289731 17.5108 0.0716702C17.8141 0.114506 18.0247 0.394949 17.9824 0.69771C17.977 0.735139 17.4875 4.44979 19.5783 8.1083C19.7305 8.37418 19.6379 8.71257 19.372 8.86478C19.2853 8.91455 19.1905 8.93784 19.0975 8.93784C18.9045 8.93784 18.7178 8.83775 18.6154 8.65851ZM29.6325 4.50177C29.6325 4.80828 29.3845 5.05628 29.078 5.05628H26.8599C26.5534 5.05628 26.3054 4.80828 26.3054 4.50177C26.3054 4.19527 26.5534 3.94727 26.8599 3.94727H29.078C29.3845 3.94727 29.6325 4.19527 29.6325 4.50177ZM26.4679 3.23029C26.2513 3.01375 26.2513 2.66275 26.4679 2.44621L27.2996 1.61445C27.5162 1.39792 27.8672 1.39792 28.0837 1.61445C28.3003 1.83099 28.3003 2.18199 28.0837 2.39853L27.252 3.23029C27.1437 3.33856 27.0017 3.39276 26.8599 3.39276C26.7181 3.39276 26.5761 3.33869 26.4679 3.23029ZM28.0837 6.60502C28.3003 6.82156 28.3003 7.17256 28.0837 7.3891C27.9755 7.49737 27.8335 7.55157 27.6917 7.55157C27.5499 7.55157 27.4079 7.49737 27.2996 7.3891L26.4679 6.55734C26.2513 6.3408 26.2513 5.9898 26.4679 5.77326C26.6844 5.55673 27.0354 5.55673 27.252 5.77326L28.0837 6.60502Z" fill="#f1e8e8"/>
</svg>

<svg width="30" height="35" fill="none" xmlns="http://www.w3.org/2000/svg"><path d="M25.75 16.701c-.916 0-1.663.746-1.663 1.663 0 .918.747 1.664 1.664 1.664.917 0 1.663-.746 1.663-1.663 0-.918-.746-1.664-1.663-1.664Zm0 2.218a.555.555 0 1 1 .002-1.11.555.555 0 0 1-.001 1.11ZM5.952 15.754l.44-.44-.44-.439a.554.554 0 1 1 .784-.784l.44.44.44-.44a.554.554 0 0 1 .784.784l-.44.44.44.44a.554.554 0 1 1-.784.783l-.44-.44-.44.44a.553.553 0 0 1-.784 0 .554.554 0 0 1 0-.784ZM27.97 12.82a.554.554 0 1 1-1.11 0 .554.554 0 0 1 1.11 0Zm-5.072 8.26c-.87-.957-2.329-2.56-2.372-3.078-.048-.578.71-3.797 1.285-5.994.665-.65 3.386-3.78 3.386-11.387a.554.554 0 1 0-1.109 0c0 6.116-1.85 9.129-2.703 10.194l-.717-1.075a.554.554 0 1 0-.923.616l.971 1.456c-.338 1.293-1.372 5.352-1.295 6.282.07.835 1.05 1.967 2.657 3.734.408.447.802.88 1.128 1.266.456.54.507 1.547.127 2.509-.245.618-1.03 2.082-3.028 2.314-2.333.272-6.008 2.677-8.692 4.432-1.06.694-2.26 1.48-2.496 1.543h-1.11l-6.632.008c-.05-.037-.176-.194-.234-.848l4.478-1.429a.56.56 0 0 0 .264-.182L7.836 29v-.003c.756-.874 4.194-7.519 4.887-8.865a.556.556 0 0 0 .061-.239L13.328.57A.555.555 0 0 0 12.79 0c-.33.008-.562.233-.57.539l-.54 19.196c-1.983 3.846-4.277 8.11-4.664 8.52-.19.162-1.118.502-2.028.82H1.543a.554.554 0 0 0-.496.306l-.874 1.747a.7.7 0 0 0-.157.409l-.002.019-.002.026-.004.199c-.033 1.164.013 2.318.565 2.886.212.218.482.333.78.333h15.849a.554.554 0 1 0 0-1.109h-5.928c.282-.181.586-.38.946-.615 2.444-1.6 6.139-4.017 8.212-4.258 1.8-.21 3.269-1.334 3.931-3.009.535-1.35.413-2.777-.31-3.632-.335-.395-.739-.84-1.156-1.297ZM1.115 31.895l.001-.082.002-.061c.459-.332 2.318-.97 3.455-1.36.38-.13.707-.244 1.01-.35l-.462.575-4.006 1.278Zm13.574-12.041.555-1.664a.554.554 0 0 1 .526-.379h1.663a.554.554 0 1 1 0 1.11H16.17l-.428 1.284a.554.554 0 1 1-1.052-.351Zm3.926-11.194C16.33 4.658 16.86.708 16.885.542a.555.555 0 0 1 1.098.156c-.006.037-.495 3.752 1.595 7.41a.554.554 0 1 1-.963.55Zm11.018-4.157a.554.554 0 0 1-.555.554H26.86a.554.554 0 1 1 0-1.109h2.218c.306 0 .555.248.555.555ZM26.468 3.23a.554.554 0 0 1 0-.784l.832-.832a.554.554 0 1 1 .784.785l-.832.831a.553.553 0 0 1-.784 0Zm1.616 3.375a.554.554 0 1 1-.784.784l-.832-.832a.554.554 0 1 1 .784-.784l.832.832Z" fill="#946E86"/></svg>
